X:98
T:Miss Shephard
R:Reel
M:C
%%printtempo 0
Q:180
K:Am
"Am"A,B,CD E2DC| "G"B,G^FG DB,G,B,| "Am"A,B,CD E^GAc|
[1 "G"BAGB "Am"cAA2 :|2 "G"BAGB "Am"cAA ^g|| "Am" a2ed cBA^F| "G"G2DC B,A,G, ^g|
"Am"a2 ed cBAc |"G"BAGB "Am" cAA^g| "Am"a2ed cBA^F|
"G"G2DC B,A,G,B,| "Am"A,B,CD E^GAc| "G"BAGB "Am"cA A2:|
